logos/dbt-icon.svg

<?xml version="1.0" encoding="UTF-8"?>
<svg width="256px" height="256px" viewBox="0 0 256 256" version="1.1" xmlns="http://www.w3.org/2000/svg" xmlns:xlink="http://www.w3.org/1999/xlink" preserveAspectRatio="xMidYMid">
    <title>dbt</title>
    <g>
        <path d="M245.121138,10.6473813 C251.139129,16.4340053 255.074133,24.0723342 256,32.4050489 C256,35.8769778 255.074133,38.1917867 252.990862,42.5895822 C250.907876,46.9873778 225.215147,91.4286933 217.57696,103.696213 C213.179164,110.871609 210.864356,119.435947 210.864356,127.768462 C210.864356,136.3328 213.179164,144.6656 217.57696,151.840996 C225.215147,164.108516 250.907876,208.781084 252.990862,213.179164 C255.074133,217.57696 256,219.659947 256,223.131876 C255.074133,231.464676 251.370667,239.103147 245.352676,244.658347 C239.565938,250.676338 231.927751,254.611342 223.826489,255.305671 C220.35456,255.305671 218.039751,254.379804 213.873493,252.296533 C209.706951,250.213262 164.340053,225.215147 152.072249,217.57696 C151.146382,217.113884 150.220516,216.419556 149.063396,215.95648 L88.4195556,180.079502 C89.8082133,191.652693 94.9006222,202.763093 103.233138,210.864356 C104.853618,212.484551 106.473813,213.873493 108.325547,215.262151 C106.936604,215.95648 105.316409,216.651093 103.927751,217.57696 C91.6599467,225.215147 46.9873778,250.907876 42.5895822,252.990862 C38.1917867,255.074133 36.1085156,256 32.4050489,256 C24.0723342,255.074133 16.4340053,251.370667 10.8788338,245.352676 C4.86075733,239.565938 0.925858133,231.927751 0,223.594951 C0.231464676,220.123022 1.1573248,216.651093 3.00905244,213.641956 C5.09223822,209.24416 30.7848533,164.571307 38.42304,152.303787 C42.82112,145.128391 45.1356444,136.795591 45.1356444,128.231538 C45.1356444,119.6672 42.82112,111.3344 38.42304,104.159004 C30.7848533,91.4286933 4.86075733,46.75584 3.00905244,42.3580444 C1.1573248,39.3489067 0.231464676,35.8769778 0,32.4050489 C0.925858133,24.0723342 4.62930489,16.4340053 10.6473813,10.6473813 C16.4340053,4.62930489 24.0723342,0.925858133 32.4050489,0 C35.8769778,0.231464676 39.3489067,1.1573248 42.5895822,3.00905244 C46.2930489,4.62930489 78.9293511,23.6094009 96.28928,33.7939911 L100.224284,36.1085156 C101.612942,37.0343822 102.770347,37.7287111 103.696213,38.1917867 L105.547947,39.3489067 L167.348907,75.9204978 C165.960249,62.0324978 158.784853,49.3019022 147.674453,40.7378489 C149.063396,40.04352 150.683591,39.3489067 152.072249,38.42304 C164.340053,30.7848533 209.012622,4.86075733 213.410418,3.00905244 C216.419556,1.1573248 219.891484,0.231464676 223.594951,0 C231.696213,0.925858133 239.334684,4.62930489 245.121138,10.6473813 Z M131.240391,144.434062 L144.434062,131.240391 C146.285796,129.388658 146.285796,126.611342 144.434062,124.759609 L131.240391,111.565938 C129.388658,109.714204 126.611342,109.714204 124.759609,111.565938 L111.565938,124.759609 C109.714204,126.611342 109.714204,129.388658 111.565938,131.240391 L124.759609,144.434062 C126.379804,146.054258 129.388658,146.054258 131.240391,144.434062 Z" fill="#FF694A"></path>
    </g>
</svg>

<svg width="256" height="256" xmlns="http://www.w3.org/2000/svg" preserveAspectRatio="xMidYMid">
	<path d="M245.121 10.647c6.018 5.787 9.953 13.425 10.879 21.758 0 3.472-.926 5.787-3.01 10.185-2.082 4.397-27.775 48.839-35.413 61.106-4.398 7.176-6.713 15.74-6.713 24.072 0 8.565 2.315 16.898 6.713 24.073 7.638 12.268 33.33 56.94 35.414 61.338 2.083 4.398 3.009 6.48 3.009 9.953-.926 8.333-4.63 15.971-10.647 21.526-5.787 6.018-13.425 9.953-21.527 10.648-3.471 0-5.786-.926-9.953-3.01-4.166-2.083-49.533-27.08-61.8-34.719-.927-.463-1.852-1.157-3.01-1.62L88.42 180.08c1.388 11.573 6.48 22.683 14.813 30.784 1.62 1.62 3.24 3.01 5.093 4.398-1.39.694-3.01 1.39-4.398 2.315-12.268 7.638-56.94 33.33-61.338 35.414-4.398 2.083-6.481 3.009-10.185 3.009-8.333-.926-15.971-4.63-21.526-10.647C4.86 239.566.926 231.928 0 223.595c.231-3.472 1.157-6.944 3.01-9.953 2.082-4.398 27.775-49.07 35.413-61.338 4.398-7.176 6.713-15.508 6.713-24.072 0-8.565-2.315-16.898-6.713-24.073-7.638-12.73-33.562-57.403-35.414-61.801C1.157 39.348.231 35.877 0 32.405c.926-8.333 4.63-15.971 10.647-21.758C16.434 4.63 24.072.926 32.405 0c3.472.231 6.944 1.157 10.185 3.01 3.703 1.62 36.34 20.6 53.7 30.784l3.934 2.315c1.389.925 2.546 1.62 3.472 2.083l1.852 1.157 61.8 36.571c-1.388-13.888-8.563-26.618-19.674-35.182 1.39-.694 3.01-1.39 4.398-2.315 12.268-7.638 56.94-33.562 61.338-35.414C216.42 1.157 219.891.231 223.595 0a35.434 35.434 0 0 1 21.526 10.647Zm-113.88 133.787 13.193-13.194c1.852-1.851 1.852-4.629 0-6.48l-13.194-13.194c-1.851-1.852-4.629-1.852-6.48 0l-13.194 13.194c-1.852 1.851-1.852 4.629 0 6.48l13.194 13.194c1.62 1.62 4.629 1.62 6.48 0Z" fill="#FF694A"/>
</svg>
